!!!OTL: UND ALS AN GRUENER SEITE
!!!ARE: Europa, Mitteleuropa, Deutschland, Schleswig, Achtrup
!!!SCT: K2620
!!!YEM: Copyright 1995, estate of Helmut Schaffrath.
**kern
*ICvox
*Ivox
*M2/4
*k[b-e-]
*B-:
{8f
=1
8b-
8b-
8b-
8b-
=2
4b-
8f}
{8f
=3
8dd
8dd
8dd
8dd
=4
4dd
4b-}
=5
{4ff
4ff
=6
8ff
8ee-
8dd}
{8dd
=7
8cc
8cc
8cc
8cc
=8
4b-
8f}
==
!!!AGN: Kinder - Lied, Reigen, Gesellschafts - Spiel
!!!ONB: ESAC (Essen Associative Code) Database: KINDER
!!!AMT: simple duple
!!!AIN: vox
!!!EED: Helmut Schaffrath
!!!EEV: 1.0
*-
